img/icon/mobile.svg

<svg width="14" height="20" viewBox="0 0 14 20" fill="none" xmlns="http://www.w3.org/2000/svg">
<path d="M5.75 4H8.25M11 19H3C1.895 19 1 18.105 1 17V3C1 1.895 1.895 1 3 1H11C12.105 1 13 1.895 13 3V17C13 18.105 12.105 19 11 19ZM6.999 15.25C6.861 15.25 6.749 15.362 6.75 15.5C6.75 15.638 6.862 15.75 7 15.75C7.138 15.75 7.25 15.638 7.25 15.5C7.25 15.362 7.138 15.25 6.999 15.25Z" stroke="#ABB0BE" stroke-width="1.5" stroke-linecap="round" stroke-linejoin="round"/>
</svg>

<svg width="14" height="20" fill="none" xmlns="http://www.w3.org/2000/svg"><path d="M5.75 4h2.5M11 19H3a2 2 0 0 1-2-2V3a2 2 0 0 1 2-2h8a2 2 0 0 1 2 2v14a2 2 0 0 1-2 2zm-4.001-3.75a.25.25 0 1 0 .251.25.25.25 0 0 0-.251-.25z" stroke="#ABB0BE" stroke-width="1.5" stroke-linecap="round" stroke-linejoin="round"/></svg>
